images/3246637.svg

<?xml version="1.0" encoding="UTF-8"?>
<svg xmlns="http://www.w3.org/2000/svg" xmlns:xlink="http://www.w3.org/1999/xlink" width="300pt" height="300pt" viewBox="0 0 300 300" version="1.1">
<defs>
<g>
<symbol overflow="visible" id="glyph0-0">
<path style="stroke:none;" d="M 0.59375 2.125 L 0.59375 -8.46875 L 6.59375 -8.46875 L 6.59375 2.125 Z M 1.265625 1.453125 L 5.9375 1.453125 L 5.9375 -7.78125 L 1.265625 -7.78125 Z M 1.265625 1.453125 "/>
</symbol>
<symbol overflow="visible" id="glyph0-1">
<path style="stroke:none;" d="M 1.171875 -8.75 L 2.359375 -8.75 L 2.359375 -5.15625 L 6.65625 -5.15625 L 6.65625 -8.75 L 7.84375 -8.75 L 7.84375 0 L 6.65625 0 L 6.65625 -4.171875 L 2.359375 -4.171875 L 2.359375 0 L 1.171875 0 Z M 1.171875 -8.75 "/>
</symbol>
<symbol overflow="visible" id="glyph0-2">
<path style="stroke:none;" d="M 4.734375 -7.953125 C 3.867188 -7.953125 3.179688 -7.628906 2.671875 -6.984375 C 2.171875 -6.347656 1.921875 -5.472656 1.921875 -4.359375 C 1.921875 -3.265625 2.171875 -2.394531 2.671875 -1.75 C 3.179688 -1.113281 3.867188 -0.796875 4.734375 -0.796875 C 5.585938 -0.796875 6.265625 -1.113281 6.765625 -1.75 C 7.273438 -2.394531 7.53125 -3.265625 7.53125 -4.359375 C 7.53125 -5.472656 7.273438 -6.347656 6.765625 -6.984375 C 6.265625 -7.628906 5.585938 -7.953125 4.734375 -7.953125 Z M 4.734375 -8.90625 C 5.953125 -8.90625 6.925781 -8.492188 7.65625 -7.671875 C 8.394531 -6.847656 8.765625 -5.742188 8.765625 -4.359375 C 8.765625 -2.984375 8.394531 -1.882812 7.65625 -1.0625 C 6.925781 -0.238281 5.953125 0.171875 4.734375 0.171875 C 3.503906 0.171875 2.519531 -0.238281 1.78125 -1.0625 C 1.039062 -1.882812 0.671875 -2.984375 0.671875 -4.359375 C 0.671875 -5.742188 1.039062 -6.847656 1.78125 -7.671875 C 2.519531 -8.492188 3.503906 -8.90625 4.734375 -8.90625 Z M 4.734375 -8.90625 "/>
</symbol>
<symbol overflow="visible" id="glyph0-3">
<path style="stroke:none;" d="M 1.171875 -8.75 L 2.765625 -8.75 L 6.65625 -1.4375 L 6.65625 -8.75 L 7.796875 -8.75 L 7.796875 0 L 6.203125 0 L 2.328125 -7.3125 L 2.328125 0 L 1.171875 0 Z M 1.171875 -8.75 "/>
</symbol>
</g>
</defs>
<g id="surface53613">
<rect x="0" y="0" width="300" height="300" style="fill:rgb(100%,100%,100%);fill-opacity:1;stroke:none;"/>
<path style="fill:none;stroke-width:1.2;stroke-linecap:butt;stroke-linejoin:miter;stroke:rgb(0%,0%,0%);stroke-opacity:1;stroke-miterlimit:10;" d="M 217.640625 231.234375 L 241.195312 210.347656 "/>
<path style="fill:none;stroke-width:1.2;stroke-linecap:butt;stroke-linejoin:miter;stroke:rgb(0%,0%,0%);stroke-opacity:1;stroke-miterlimit:10;" d="M 241.195312 210.347656 L 264.75 189.457031 "/>
<path style="fill:none;stroke-width:1.2;stroke-linecap:butt;stroke-linejoin:miter;stroke:rgb(0%,0%,0%);stroke-opacity:1;stroke-miterlimit:10;" d="M 241.195312 210.347656 L 262.082031 233.902344 "/>
<path style="fill:none;stroke-width:1.2;stroke-linecap:butt;stroke-linejoin:miter;stroke:rgb(0%,0%,0%);stroke-opacity:1;stroke-miterlimit:10;" d="M 241.195312 210.347656 L 220.308594 186.792969 "/>
<path style="fill:none;stroke-width:1.2;stroke-linecap:butt;stroke-linejoin:miter;stroke:rgb(0%,0%,0%);stroke-opacity:1;stroke-miterlimit:10;" d="M 220.308594 186.792969 L 189.464844 193.105469 "/>
<path style="fill:none;stroke-width:1.2;stroke-linecap:butt;stroke-linejoin:miter;stroke:rgb(0%,0%,0%);stroke-opacity:1;stroke-miterlimit:10;" d="M 215.738281 180.164062 L 191.0625 185.214844 "/>
<path style="fill:none;stroke-width:1.2;stroke-linecap:butt;stroke-linejoin:miter;stroke:rgb(0%,0%,0%);stroke-opacity:1;stroke-miterlimit:10;" d="M 230.261719 156.925781 L 220.308594 186.792969 "/>
<path style="fill:none;stroke-width:1.2;stroke-linecap:butt;stroke-linejoin:miter;stroke:rgb(0%,0%,0%);stroke-opacity:1;stroke-miterlimit:10;" d="M 189.464844 193.105469 L 168.574219 169.550781 "/>
<path style="fill:none;stroke-width:1.2;stroke-linecap:butt;stroke-linejoin:miter;stroke:rgb(0%,0%,0%);stroke-opacity:1;stroke-miterlimit:10;" d="M 168.574219 169.550781 L 178.53125 139.683594 "/>
<path style="fill:none;stroke-width:1.2;stroke-linecap:butt;stroke-linejoin:miter;stroke:rgb(0%,0%,0%);stroke-opacity:1;stroke-miterlimit:10;" d="M 176.597656 168.90625 L 184.5625 145.011719 "/>
<path style="fill:none;stroke-width:1;stroke-linecap:butt;stroke-linejoin:miter;stroke:rgb(0%,0%,0%);stroke-opacity:1;stroke-miterlimit:10;" d="M 137.734375 175.863281 L 137.734375 175.863281 M 140.730469 175.78125 L 140.523438 174.757812 M 143.730469 175.699219 L 143.3125 173.65625 M 146.730469 175.617188 L 146.101562 172.554688 M 149.730469 175.535156 L 148.890625 171.449219 M 152.726562 175.453125 L 151.683594 170.347656 M 155.726562 175.371094 L 154.472656 169.242188 M 158.726562 175.292969 L 157.261719 168.140625 M 161.722656 175.210938 L 160.050781 167.039062 M 164.722656 175.128906 L 162.839844 165.933594 M 167.722656 175.046875 L 165.632812 164.832031 M 169.691406 174.992188 L 167.460938 164.105469 "/>
<path style="fill:none;stroke-width:1.2;stroke-linecap:butt;stroke-linejoin:miter;stroke:rgb(0%,0%,0%);stroke-opacity:1;stroke-miterlimit:10;" d="M 178.53125 139.683594 L 209.375 133.371094 "/>
<path style="fill:none;stroke-width:1.2;stroke-linecap:butt;stroke-linejoin:miter;stroke:rgb(0%,0%,0%);stroke-opacity:1;stroke-miterlimit:10;" d="M 178.53125 139.683594 L 168.085938 127.90625 "/>
<path style="fill:none;stroke-width:1.2;stroke-linecap:butt;stroke-linejoin:miter;stroke:rgb(100%,0%,0%);stroke-opacity:1;stroke-miterlimit:10;" d="M 168.085938 127.90625 L 157.640625 116.128906 "/>
<path style="fill:none;stroke-width:1.2;stroke-linecap:butt;stroke-linejoin:miter;stroke:rgb(0%,0%,0%);stroke-opacity:1;stroke-miterlimit:10;" d="M 209.375 133.371094 L 230.261719 156.925781 "/>
<path style="fill:none;stroke-width:1.2;stroke-linecap:butt;stroke-linejoin:miter;stroke:rgb(0%,0%,0%);stroke-opacity:1;stroke-miterlimit:10;" d="M 205.921875 140.640625 L 222.628906 159.484375 "/>
<path style="fill:none;stroke-width:1.2;stroke-linecap:butt;stroke-linejoin:miter;stroke:rgb(0%,0%,0%);stroke-opacity:1;stroke-miterlimit:10;" d="M 209.375 133.371094 L 219.328125 103.503906 "/>
<path style="fill:none;stroke-width:1.2;stroke-linecap:butt;stroke-linejoin:miter;stroke:rgb(0%,0%,0%);stroke-opacity:1;stroke-miterlimit:10;" d="M 219.328125 103.503906 L 249.195312 113.457031 "/>
<path style="fill:none;stroke-width:1.2;stroke-linecap:butt;stroke-linejoin:miter;stroke:rgb(0%,0%,0%);stroke-opacity:1;stroke-miterlimit:10;" d="M 219.328125 103.503906 L 189.460938 93.546875 "/>
<path style="fill:none;stroke-width:1.2;stroke-linecap:butt;stroke-linejoin:miter;stroke:rgb(0%,0%,0%);stroke-opacity:1;stroke-miterlimit:10;" d="M 219.328125 103.503906 L 229.28125 73.636719 "/>
<path style=" stroke:none;fill-rule:nonzero;fill:rgb(100%,100%,100%);fill-opacity:1;" d="M 138.640625 109.128906 L 157.640625 109.128906 L 157.640625 123.128906 L 138.640625 123.128906 Z M 138.640625 109.128906 "/>
<g style="fill:rgb(100%,0%,0%);fill-opacity:1;">
  <use xlink:href="#glyph0-1" x="138.640625" y="120.267578"/>
  <use xlink:href="#glyph0-2" x="147.664062" y="120.267578"/>
</g>
<path style="fill:none;stroke-width:1.2;stroke-linecap:butt;stroke-linejoin:miter;stroke:rgb(0%,0%,0%);stroke-opacity:1;stroke-miterlimit:10;" d="M 137.734375 175.863281 L 116.84375 152.308594 "/>
<path style="fill:none;stroke-width:1.2;stroke-linecap:butt;stroke-linejoin:miter;stroke:rgb(0%,0%,0%);stroke-opacity:1;stroke-miterlimit:10;" d="M 137.734375 175.863281 L 132.757812 190.796875 "/>
<path style="fill:none;stroke-width:1.2;stroke-linecap:butt;stroke-linejoin:miter;stroke:rgb(0%,0%,100%);stroke-opacity:1;stroke-miterlimit:10;" d="M 132.757812 190.796875 L 127.777344 205.730469 "/>
<path style="fill:none;stroke-width:1.2;stroke-linecap:butt;stroke-linejoin:miter;stroke:rgb(0%,0%,0%);stroke-opacity:1;stroke-miterlimit:10;" d="M 116.84375 152.308594 L 126.800781 122.441406 "/>
<path style="fill:none;stroke-width:1.2;stroke-linecap:butt;stroke-linejoin:miter;stroke:rgb(0%,0%,0%);stroke-opacity:1;stroke-miterlimit:10;" d="M 110.8125 146.980469 L 118.777344 123.085938 "/>
<path style="fill:none;stroke-width:1.2;stroke-linecap:butt;stroke-linejoin:miter;stroke:rgb(0%,0%,0%);stroke-opacity:1;stroke-miterlimit:10;" d="M 86 158.621094 L 116.84375 152.308594 "/>
<path style="fill:none;stroke-width:1.2;stroke-linecap:butt;stroke-linejoin:miter;stroke:rgb(0%,0%,0%);stroke-opacity:1;stroke-miterlimit:10;" d="M 126.800781 122.441406 L 105.910156 98.886719 "/>
<path style="fill:none;stroke-width:1.2;stroke-linecap:butt;stroke-linejoin:miter;stroke:rgb(0%,0%,0%);stroke-opacity:1;stroke-miterlimit:10;" d="M 105.910156 98.886719 L 75.066406 105.199219 "/>
<path style="fill:none;stroke-width:1.2;stroke-linecap:butt;stroke-linejoin:miter;stroke:rgb(0%,0%,0%);stroke-opacity:1;stroke-miterlimit:10;" d="M 104.3125 106.773438 L 79.636719 111.824219 "/>
<path style="fill:none;stroke-width:1.2;stroke-linecap:butt;stroke-linejoin:miter;stroke:rgb(0%,0%,0%);stroke-opacity:1;stroke-miterlimit:10;" d="M 75.066406 105.199219 L 65.113281 135.066406 "/>
<path style="fill:none;stroke-width:1.2;stroke-linecap:butt;stroke-linejoin:miter;stroke:rgb(0%,0%,0%);stroke-opacity:1;stroke-miterlimit:10;" d="M 75.066406 105.199219 L 64.625 93.421875 "/>
<path style="fill:none;stroke-width:1.2;stroke-linecap:butt;stroke-linejoin:miter;stroke:rgb(100%,0%,0%);stroke-opacity:1;stroke-miterlimit:10;" d="M 64.625 93.421875 L 54.179688 81.644531 "/>
<path style="fill:none;stroke-width:1.2;stroke-linecap:butt;stroke-linejoin:miter;stroke:rgb(0%,0%,0%);stroke-opacity:1;stroke-miterlimit:10;" d="M 65.113281 135.066406 L 86 158.621094 "/>
<path style="fill:none;stroke-width:1.2;stroke-linecap:butt;stroke-linejoin:miter;stroke:rgb(0%,0%,0%);stroke-opacity:1;stroke-miterlimit:10;" d="M 72.746094 132.507812 L 89.457031 151.351562 "/>
<path style="fill:none;stroke-width:1.2;stroke-linecap:butt;stroke-linejoin:miter;stroke:rgb(100%,0%,0%);stroke-opacity:1;stroke-miterlimit:10;" d="M 54.179688 81.644531 L 59.15625 66.710938 "/>
<path style="fill:none;stroke-width:1.2;stroke-linecap:butt;stroke-linejoin:miter;stroke:rgb(0%,0%,0%);stroke-opacity:1;stroke-miterlimit:10;" d="M 59.15625 66.710938 L 64.132812 51.777344 "/>
<path style=" stroke:none;fill-rule:nonzero;fill:rgb(100%,100%,100%);fill-opacity:1;" d="M 49.179688 74.644531 L 59.179688 74.644531 L 59.179688 88.644531 L 49.179688 88.644531 Z M 49.179688 74.644531 "/>
<g style="fill:rgb(100%,0%,0%);fill-opacity:1;">
  <use xlink:href="#glyph0-2" x="49.179688" y="85.783203"/>
</g>
<path style="fill:none;stroke-width:1.2;stroke-linecap:butt;stroke-linejoin:miter;stroke:rgb(0%,0%,100%);stroke-opacity:1;stroke-miterlimit:10;" d="M 127.777344 205.730469 L 112.355469 208.886719 "/>
<path style="fill:none;stroke-width:1.2;stroke-linecap:butt;stroke-linejoin:miter;stroke:rgb(0%,0%,0%);stroke-opacity:1;stroke-miterlimit:10;" d="M 112.355469 208.886719 L 96.9375 212.042969 "/>
<path style=" stroke:none;fill-rule:nonzero;fill:rgb(100%,100%,100%);fill-opacity:1;" d="M 118.777344 198.730469 L 136.777344 198.730469 L 136.777344 212.730469 L 118.777344 212.730469 Z M 118.777344 198.730469 "/>
<g style="fill:rgb(0%,0%,100%);fill-opacity:1;">
  <use xlink:href="#glyph0-3" x="118.777344" y="209.869141"/>
  <use xlink:href="#glyph0-1" x="127.753906" y="209.869141"/>
</g>
<path style="fill:none;stroke-width:1.2;stroke-linecap:butt;stroke-linejoin:miter;stroke:rgb(0%,0%,0%);stroke-opacity:1;stroke-miterlimit:10;" d="M 96.9375 212.042969 L 76.046875 188.488281 "/>
<path style="fill:none;stroke-width:1.2;stroke-linecap:butt;stroke-linejoin:miter;stroke:rgb(0%,0%,0%);stroke-opacity:1;stroke-miterlimit:10;" d="M 89.304688 214.601562 L 72.59375 195.757812 "/>
<path style="fill:none;stroke-width:1.2;stroke-linecap:butt;stroke-linejoin:miter;stroke:rgb(0%,0%,100%);stroke-opacity:1;stroke-miterlimit:10;" d="M 86.980469 241.910156 L 91.957031 226.976562 "/>
<path style="fill:none;stroke-width:1.2;stroke-linecap:butt;stroke-linejoin:miter;stroke:rgb(0%,0%,0%);stroke-opacity:1;stroke-miterlimit:10;" d="M 91.957031 226.976562 L 96.9375 212.042969 "/>
<path style="fill:none;stroke-width:1.2;stroke-linecap:butt;stroke-linejoin:miter;stroke:rgb(0%,0%,0%);stroke-opacity:1;stroke-miterlimit:10;" d="M 76.046875 188.488281 L 45.203125 194.800781 "/>
<path style="fill:none;stroke-width:1.2;stroke-linecap:butt;stroke-linejoin:miter;stroke:rgb(0%,0%,0%);stroke-opacity:1;stroke-miterlimit:10;" d="M 45.203125 194.800781 L 35.25 224.667969 "/>
<path style="fill:none;stroke-width:1.2;stroke-linecap:butt;stroke-linejoin:miter;stroke:rgb(0%,0%,0%);stroke-opacity:1;stroke-miterlimit:10;" d="M 51.238281 200.128906 L 43.273438 224.023438 "/>
<path style="fill:none;stroke-width:1.2;stroke-linecap:butt;stroke-linejoin:miter;stroke:rgb(0%,0%,0%);stroke-opacity:1;stroke-miterlimit:10;" d="M 35.25 224.667969 L 56.136719 248.222656 "/>
<path style="fill:none;stroke-width:1.2;stroke-linecap:butt;stroke-linejoin:miter;stroke:rgb(0%,0%,0%);stroke-opacity:1;stroke-miterlimit:10;" d="M 56.136719 248.222656 L 71.558594 245.066406 "/>
<path style="fill:none;stroke-width:1.2;stroke-linecap:butt;stroke-linejoin:miter;stroke:rgb(0%,0%,100%);stroke-opacity:1;stroke-miterlimit:10;" d="M 71.558594 245.066406 L 86.980469 241.910156 "/>
<path style="fill:none;stroke-width:1.2;stroke-linecap:butt;stroke-linejoin:miter;stroke:rgb(0%,0%,0%);stroke-opacity:1;stroke-miterlimit:10;" d="M 57.738281 240.332031 L 70.074219 237.808594 "/>
<path style="fill:none;stroke-width:1.2;stroke-linecap:butt;stroke-linejoin:miter;stroke:rgb(0%,0%,100%);stroke-opacity:1;stroke-miterlimit:10;" d="M 70.074219 237.808594 L 82.410156 235.285156 "/>
<path style=" stroke:none;fill-rule:nonzero;fill:rgb(100%,100%,100%);fill-opacity:1;" d="M 82.980469 234.910156 L 91.980469 234.910156 L 91.980469 248.910156 L 82.980469 248.910156 Z M 82.980469 234.910156 "/>
<g style="fill:rgb(0%,0%,100%);fill-opacity:1;">
  <use xlink:href="#glyph0-3" x="82.980469" y="246.048828"/>
</g>
</g>
</svg>

<svg xmlns="http://www.w3.org/2000/svg" xmlns:xlink="http://www.w3.org/1999/xlink" width="300pt" height="300pt" viewBox="0 0 300 300"><defs><symbol overflow="visible"><path d="M.594 2.125V-8.47h6V2.126zm.672-.672h4.671V-7.78h-4.67zm0 0"/></symbol><symbol overflow="visible" id="a"><path d="M1.172-8.75H2.36v3.594h4.296V-8.75h1.188V0H6.656v-4.172H2.36V0H1.17zm0 0"/></symbol><symbol overflow="visible" id="b"><path d="M4.734-7.953c-.867 0-1.554.324-2.062.97-.5.635-.75 1.51-.75 2.624 0 1.094.25 1.965.75 2.61.508.637 1.195.953 2.062.953.852 0 1.532-.316 2.032-.953.507-.645.765-1.516.765-2.61 0-1.113-.257-1.988-.764-2.624-.5-.645-1.18-.97-2.032-.97zm0-.953c1.22 0 2.192.414 2.922 1.234.74.824 1.11 1.93 1.11 3.313 0 1.376-.37 2.477-1.11 3.298C6.926-.24 5.953.17 4.734.17c-1.23 0-2.214-.41-2.953-1.234C1.04-1.882.673-2.984.673-4.36c0-1.382.367-2.488 1.11-3.312.738-.82 1.722-1.234 2.952-1.234zm0 0"/></symbol><symbol overflow="visible" id="c"><path d="M1.172-8.75h1.594l3.89 7.313V-8.75h1.14V0H6.204L2.328-7.313V0H1.172zm0 0"/></symbol></defs><g><path fill="#fff" d="M0 0h300v300H0z"/><path d="M217.64 231.234l23.555-20.886M241.195 210.348l23.555-20.89M241.195 210.348l20.887 23.554M241.195 210.348l-20.886-23.555M220.31 186.793l-30.845 6.312M215.738 180.164l-24.675 5.05M230.262 156.926l-9.953 29.867M189.465 193.105l-20.89-23.554M168.574 169.55l9.957-29.866M176.598 168.906l7.964-23.894" stroke-width="1.2" stroke="#000" stroke-miterlimit="10" fill="none"/><path d="M137.734 175.863m2.996-.082l-.207-1.022m3.207.94l-.417-2.042m3.417 1.96l-.628-3.06m3.628 2.98l-.84-4.087m3.837 4.003l-1.043-5.105m4.043 5.023l-1.254-6.128m4.254 6.05l-1.465-7.15m4.46 7.07l-1.67-8.173m4.67 8.09l-1.882-9.196m4.883 9.113l-2.09-10.215m4.058 10.16l-2.23-10.887" stroke="#000" stroke-miterlimit="10" fill="none"/><path d="M178.53 139.684l30.845-6.313M178.53 139.684l-10.444-11.778" stroke-width="1.2" stroke="#000" stroke-miterlimit="10" fill="none"/><path d="M168.086 127.906L157.64 116.13" stroke-width="1.2" stroke="#f00" stroke-miterlimit="10" fill="none"/><path d="M209.375 133.37l20.887 23.556M205.922 140.64l16.707 18.844M209.375 133.37l9.953-29.866M219.328 103.504l29.867 9.953M219.328 103.504l-29.867-9.957M219.328 103.504l9.953-29.867" stroke-width="1.2" stroke="#000" stroke-miterlimit="10" fill="none"/><path d="M138.64 109.13h19v14h-19zm0 0" fill="#fff"/><g fill="#f00"><use xlink:href="#a" x="138.641" y="120.268"/><use xlink:href="#b" x="147.664" y="120.268"/></g><path d="M137.734 175.863l-20.89-23.554M137.734 175.863l-4.976 14.934" stroke-width="1.2" stroke="#000" stroke-miterlimit="10" fill="none"/><path d="M132.758 190.797l-4.98 14.933" stroke-width="1.2" stroke="#00f" stroke-miterlimit="10" fill="none"/><path d="M116.844 152.31l9.957-29.87M110.813 146.98l7.964-23.894M86 158.62l30.844-6.31M126.8 122.44l-20.89-23.553M105.91 98.887L75.066 105.2M104.313 106.773l-24.676 5.05M75.066 105.2l-9.953 29.866M75.066 105.2L64.626 93.42" stroke-width="1.2" stroke="#000" stroke-miterlimit="10" fill="none"/><path d="M64.625 93.422L54.18 81.645" stroke-width="1.2" stroke="#f00" stroke-miterlimit="10" fill="none"/><path d="M65.113 135.066L86 158.62M72.746 132.508l16.71 18.844" stroke-width="1.2" stroke="#000" stroke-miterlimit="10" fill="none"/><path d="M54.18 81.645l4.976-14.934" stroke-width="1.2" stroke="#f00" stroke-miterlimit="10" fill="none"/><path d="M59.156 66.71l4.977-14.933" stroke-width="1.2" stroke="#000" stroke-miterlimit="10" fill="none"/><path d="M49.18 74.645h10v14h-10zm0 0" fill="#fff"/><use xlink:href="#b" x="49.18" y="85.783" fill="#f00"/><path d="M127.777 205.73l-15.422 3.157" stroke-width="1.2" stroke="#00f" stroke-miterlimit="10" fill="none"/><path d="M112.355 208.887l-15.418 3.156" stroke-width="1.2" stroke="#000" stroke-miterlimit="10" fill="none"/><path d="M118.777 198.73h18v14h-18zm0 0" fill="#fff"/><g fill="#00f"><use xlink:href="#c" x="118.777" y="209.869"/><use xlink:href="#a" x="127.754" y="209.869"/></g><path d="M96.938 212.043l-20.89-23.555M89.305 214.602l-16.71-18.844" stroke-width="1.2" stroke="#000" stroke-miterlimit="10" fill="none"/><path d="M86.98 241.91l4.977-14.933" stroke-width="1.2" stroke="#00f" stroke-miterlimit="10" fill="none"/><path d="M91.957 226.977l4.98-14.934M76.047 188.488L45.203 194.8M45.203 194.8L35.25 224.67M51.238 200.13l-7.965 23.893M35.25 224.668l20.887 23.555M56.137 248.223l15.422-3.157" stroke-width="1.2" stroke="#000" stroke-miterlimit="10" fill="none"/><path d="M71.56 245.066l15.42-3.156" stroke-width="1.2" stroke="#00f" stroke-miterlimit="10" fill="none"/><path d="M57.738 240.332l12.336-2.523" stroke-width="1.2" stroke="#000" stroke-miterlimit="10" fill="none"/><path d="M70.074 237.81l12.336-2.525" stroke-width="1.2" stroke="#00f" stroke-miterlimit="10" fill="none"/><path d="M82.98 234.91h9v14h-9zm0 0" fill="#fff"/><use xlink:href="#c" x="82.98" y="246.049" fill="#00f"/></g></svg>
